icons-rebrand/svg/private-circle-filled.svg

<svg width="32" height="32" viewBox="0 0 32 32" fill="none" xmlns="http://www.w3.org/2000/svg">
<path fill-rule="evenodd" clip-rule="evenodd" d="M8.50017 4.77516C10.7202 3.29176 13.3303 2.5 16.0004 2.5C19.5796 2.50391 23.0111 3.92748 25.542 6.45837C28.0729 8.98927 29.4965 12.4208 29.5004 16C29.5004 18.67 28.7086 21.2801 27.2252 23.5002C25.7418 25.7203 23.6334 27.4506 21.1666 28.4724C18.6998 29.4942 15.9854 29.7615 13.3667 29.2406C10.7479 28.7197 8.34244 27.434 6.45443 25.5459C4.56642 23.6579 3.28067 21.2525 2.75977 18.6337C2.23887 16.015 2.50622 13.3006 3.528 10.8338C4.54978 8.36697 6.28011 6.25856 8.50017 4.77516ZM14.0177 11.7406C14.0774 10.7734 14.4867 9.861 15.1695 9.17344L15.1695 9.1734C15.6343 8.70808 16.2067 8.36458 16.836 8.17332C17.4653 7.98205 18.1321 7.94894 18.7772 8.0769C19.4224 8.20486 20.026 8.48995 20.5347 8.90692C21.0433 9.32389 21.4413 9.85987 21.6933 10.4674C21.9454 11.0749 22.0437 11.7352 21.9796 12.3898C21.9155 13.0444 21.691 13.673 21.3259 14.2201C20.9608 14.7672 20.4664 15.2158 19.8866 15.5262C19.3067 15.8366 18.6592 15.9992 18.0015 15.9996H17.9986C17.4567 15.9995 16.9206 15.8887 16.4232 15.6738L14.2188 17.9842L15.4116 19.1734C15.5978 19.359 15.7456 19.5794 15.8465 19.8222C15.9474 20.0649 15.9994 20.3252 15.9996 20.588C15.9998 20.8509 15.9481 21.1112 15.8476 21.3541C15.747 21.597 15.5996 21.8177 15.4136 22.0035L14.0035 23.4136C13.6286 23.7879 13.1206 23.9982 12.5908 23.9986C12.0611 23.999 11.5528 23.7893 11.1773 23.4156L9.29353 21.5377C9.20052 21.445 9.12669 21.3349 9.07625 21.2136C9.02581 21.0924 8.99976 20.9624 8.99957 20.8311C8.99939 20.6998 9.02508 20.5697 9.07518 20.4483C9.12528 20.3269 9.19881 20.2166 9.29156 20.1236L12.0962 17.3111L14.8455 14.4297C14.2523 13.6635 13.9581 12.7077 14.0177 11.7406ZM11.4136 20.8277L12.5894 21.9996L13.9996 20.5895L12.8218 19.4156L11.4136 20.8277ZM18.7659 13.8484C19.0085 13.7478 19.2287 13.6001 19.4136 13.4137L19.4136 13.4137C19.5995 13.2281 19.7469 13.0076 19.8474 12.7649C19.948 12.5223 19.9997 12.2621 19.9996 11.9995C19.9995 11.7368 19.9476 11.4767 19.8469 11.2341C19.7462 10.9915 19.5986 10.7711 19.4126 10.5856L19.4116 10.5846C19.1789 10.3527 18.8927 10.1818 18.5782 10.0869C18.2637 9.99196 17.9307 9.97601 17.6086 10.0404C17.2864 10.1049 16.9852 10.2477 16.7314 10.4563C16.4776 10.6649 16.2791 10.9328 16.1535 11.2363C16.0279 11.5398 15.9791 11.8697 16.0113 12.1966C16.0435 12.5235 16.1557 12.8374 16.3381 13.1106C16.5206 13.3838 16.7675 13.6079 17.0571 13.7629C17.3467 13.918 17.6701 13.9993 17.9986 13.9996H18.0006C18.2632 14.0004 18.5233 13.949 18.7659 13.8484Z" fill="black"/>
</svg>

<svg id="Layer_1" data-name="Layer 1" xmlns="http://www.w3.org/2000/svg" viewBox="0 0 32 32"><defs><style>.cls-1,.cls-2{fill:#0f0f0f;}.cls-1{fill-rule:evenodd;}</style></defs><path class="cls-1" d="M25.542,6.458A13.489,13.489,0,1,0,29.5,16,13.514,13.514,0,0,0,25.542,6.458ZM21.98,12.39A4,4,0,0,1,18,16h0a3.975,3.975,0,0,1-1.576-.326l-2.2,2.31,1.193,1.189a1.989,1.989,0,0,1,.434.649,1.994,1.994,0,0,1,0,1.532,1.994,1.994,0,0,1-.434.649L14,23.414a2,2,0,0,1-2.826,0L9.294,21.538A.992.992,0,0,1,9,20.831a.99.99,0,0,1,.292-.707l2.8-2.813,2.75-2.881a3.993,3.993,0,0,1,.323-5.257h0A4,4,0,0,1,21.98,12.39Z"/><rect class="cls-2" x="11.709" y="19.877" width="1.994" height="1.661" transform="translate(-10.931 15.09) rotate(-45.097)"/><path class="cls-1" d="M19.413,10.586h0a2,2,0,0,0-3.4,1.612A2,2,0,0,0,18,14h0a2,2,0,0,0,1.412-3.414Z"/></svg>
